X: 24865
T: Magic Circle, The
R: reel
M: 4/4
K: Edorian
BGEF GABG|EGBd e2 fg|fBBA Bcde|defe dBAF|
BGEF G3 A|B2 AG FEDF|EFGB (3ABA dB|AGFG E2 GA:|
Beed efga|Beeg fgab|gfed efga|fBBA Bcdf|
Beed efga|Beeg fgab|gfed (3 efe dB|AGFG E2 GA|
Beed efga|Beeg fgab|gfed efga|fBBA Bcdf|
dAAG A2 FG|ABAG FADF|EFGB (3 ABA dB|AGFG E4|

